!!!OTL: Wiedersehen an der Bahre.
!!!OTL-incipit: Es zog ein Knab' ins fremde Land,
!!!ARE: Europa, Mitteleuropa, Deutschland (BRD), Baden
!!!YOR: 3, S. 80
!!    ????
!!!SCT: Q0056E
!!!TXL: @@DE
!!!YEM: Copyright 1995, estate of Helmut Schaffrath.
**kern	**text
*ICvox	*
*M4/4	*
*met(c)	*
*k[f#]	*
*G:	*
!LO:TX:a:t=116 (Baden)	!
{4d	Es
=1	=1
4g	ʒog
4g	ein
4b	Knab'
8aL	ins
8gJ	.
=2	=2
4a	frem-
4a	-de
4a}	Land,
{8dL	er
8f#J	.
=3	=3
4.a	ʒog
8b	wohl
4cc	in
8bL	die
8aJ	.
=4	=4
2a	Frem-
4b}	-de.
{4g	Was
=5	=5
8e	gab
8e	er
8e	ſeinem
8e	.
4g	Schatʒ
8f#L	ʒum
8eJ	.
=6	=6
4e	letʒ-
8dL	-ten
8gJ	.
4b}	Mal?
{8a	Ei-
8g	-nen
=7	=7
8.f#	Kuß,
16f#	daß
8.a	ſie
16a	an
(4dd	ihn
8.cc)	.
16f#	ge-
=8	=8
2a	-den-
4g}	-ke.
{4g	Was
=9	=9
8e	gab
8e	er
8e	ſeinem
8e	.
4g	Schatʒ
8f#L	ʒum
8eJ	.
=10	=10
4e	letʒ-
8dL	-ten
8gJ	.
4b}	Mal?
{8aL	Ei-
8gJ	-nen
=11	=11
8.f#	Kuß,
16f#	daß
8.a	ſie
16a	an
(4dd	ihn
8.cc)	.
16f#	ge-
=12	=12
2a	-den-
4g}	-ke.
==	==
!!!AGN: Ballade, Abschied, Enttaeuschung, Tod, Selbstmord
!!!ONB: ESAC (Essen Associative Code) Database: BALLADE
!!!AMT: simple quadruple
!!!AIN: vox
!!!EED: Helmut Schaffrath
!!!EEV: 1.0
!!!source: Deutsche Volkslieder mit ihren Melodien. Herausgegeben vom Deutschen Volksliedarchiv. Dritter Band Balladen. Berlin 1954.
!!!page: 80
!!!ENC: Anna Maria Matuszewska
!!!EEV: 2025/02/18
*-	*-
